!!!COM: Corelli, Arcangelo
!!!OTL: 
!!!ONM: Opus 6, No. 7
!!!OMV: 6
!!!CDT: 1653/2/17/-1713/1/8/
!!!OCY: Italia
**kern	**kern	**kern	**kern	**kern	**kern	**kern
*clefC	*clefG	*clefG	*clefG	*clefC	*clefG	*clefG
*k[f#c#]	*k[f#c#]	*k[f#c#]	*k[f#c#]	*k[f#c#]	*k[f#c#]	*k[f#c#]
*D:	*D:	*D:	*D:	*D:	*D:	*D:
*M3/8	*M3/8	*M3/8	*M3/8	*M3/8	*M3/8	*M3/8
=1	=1	=1	=1	=1	=1	=1
8D	8f#	8ff#	8aa	8D	8ff#	8aa
4E	4g	4ee	4gg	4E	4ee	4gg
=2	=2	=2	=2	=2	=2	=2
8.F#	8.a	8.dd	8.ff#	8.F#	8.dd	8.ff#
16E	16g	16ee	16gg	16E	16ee	16gg
8D	8f#	8ff#	8aa	8D	8ff#	8aa
=3	=3	=3	=3	=3	=3	=3
8G	8b	8ee	8gg	8G	8ee	8gg
4D	4a	4dd	4ff#	4D	4dd	4ff#
=4	=4	=4	=4	=4	=4	=4
4.A	4.a	4.cc#	4.ee	4.A	4.cc#	4.ee
=5	=5	=5	=5	=5	=5	=5
8.F#	8.d	4dd	8.aa	8.F#	4dd	8.aa
16E	16e	.	16gg	16E	.	16gg
8D	8f#	8dd	8ff#	8D	8dd	8ff#
=6	=6	=6	=6	=6	=6	=6
4G	4g	8.dd	8.bb	4G	8.dd	8.bb
.	.	16ee	16cc#	.	16ee	16cc#
8F#	8a	8ff#	8dd	8F#	8ff#	8dd
=7	=7	=7	=7	=7	=7	=7
8G	8b	8dd	8ee	8G	8dd	8ee
8A	8.a	8.dd	4ee	8A	8.dd	4ee
8AA	.	.	.	8AA	.	.
.	16a	16cc#	.	.	16cc#	.
=8	=8	=8	=8	=8	=8	=8
4.D	4.f#	4.dd	4.dd	4.D	4.dd	4.dd
=9	=9	=9	=9	=9	=9	=9
4.r	4.r	4.r	4.r	8d	16ff#	16aa
.	.	.	.	.	16dd	16ff#
.	.	.	.	8D	16ff#	16dd
.	.	.	.	.	16aa	16ff#
.	.	.	.	8r	16ff#	16aa
.	.	.	.	.	16dd	16ff#
=10	=10	=10	=10	=10	=10	=10
4.r	4.r	4.r	4.r	8c#	16aa	16ee
.	.	.	.	.	16ee	16aa
.	.	.	.	8C#	16a	16cc#
.	.	.	.	.	16cc#	16ee
.	.	.	.	8r	16ee	16a
.	.	.	.	.	16a	16cc#
=11	=11	=11	=11	=11	=11	=11
4.r	4.r	4.r	4.r	8B	16f#	16dd
.	.	.	.	.	16dd	16ff#
.	.	.	.	8e	16g#	16b
.	.	.	.	.	16b	16dd
.	.	.	.	8E	16e	16g#
.	.	.	.	.	16g#	16b
=12	=12	=12	=12	=12	=12	=12
4.r	4.r	4.r	4.r	8A	16a	16cc#
.	.	.	.	.	16cc#	16ee
.	.	.	.	8AA	16ee	16a
.	.	.	.	.	16aa	16cc#
.	.	.	.	8r	16ee	16aa
.	.	.	.	.	16cc#	16ee
=13	=13	=13	=13	=13	=13	=13
4.r	4.r	4.r	4.r	8d	16dd	16ff#
.	.	.	.	.	16d	16a
.	.	.	.	8D	16f#	16dd
.	.	.	.	.	16a	16ff#
.	.	.	.	8r	16dd	16bb
.	.	.	.	.	16cc#	16ff#
=14	=14	=14	=14	=14	=14	=14
4.r	4.r	4.r	4.r	8.E	16b	16gg#
.	.	.	.	.	16g#	16ee
.	.	.	.	.	16a	16ff#
.	.	.	.	16D	16b	16gg#
.	.	.	.	8C#	16e	16aa
.	.	.	.	.	16cc#	16ee
=15	=15	=15	=15	=15	=15	=15
4.r	4.r	4.r	4.r	8D	16b	16dd
.	.	.	.	.	16a	16cc#
.	.	.	.	8E	8.a	4b
.	.	.	.	8EE	.	.
.	.	.	.	.	16g#	.
=16	=16	=16	=16	=16	=16	=16
4.r	4.r	4.r	4.r	4.AA	4.a	4.a
=17	=17	=17	=17	=17	=17	=17
8D	8f#	8ff#	8aa	8D	8ff#	8aa
4E	4g	4ee	4gg	4E	4ee	4gg
=18	=18	=18	=18	=18	=18	=18
8.F#	8.a	8.dd	8.ff#	8.F#	8.dd	8.ff#
16E	16g	16ee	16gg	16E	16ee	16gg
8D	8f#	8ff#	8aa	8D	8ff#	8aa
=19	=19	=19	=19	=19	=19	=19
8G	8b	8ee	8gg	8G	8ee	8gg
4D	4a	4dd	4ff#	4D	4dd	4ff#
=20	=20	=20	=20	=20	=20	=20
4.A	4.a	4.cc#	4.ee	4.A	4.cc#	4.ee
=21	=21	=21	=21	=21	=21	=21
4.r	4.r	4.r	4.r	8.F#	4dd	8.aa
.	.	.	.	16E	.	16gg
.	.	.	.	8D	8dd	8ff#
=22	=22	=22	=22	=22	=22	=22
4.r	4.r	4.r	4.r	4G	8.dd	8.bb
.	.	.	.	.	16ee	16cc#
.	.	.	.	8F#	8ff#	8dd
=23	=23	=23	=23	=23	=23	=23
4.r	4.r	4.r	4.r	8G	8dd	8ee
.	.	.	.	8A	8.dd	4ee
.	.	.	.	8AA	.	.
.	.	.	.	.	16cc#	.
=24	=24	=24	=24	=24	=24	=24
4.r	4.r	4.r	4.r	4.D	4.dd	4.dd
=25	=25	=25	=25	=25	=25	=25
8.F#	8.d	4dd	8.aa	8.F#	4dd	8.aa
16E	16e	.	16gg	16E	.	16gg
8D	8f#	8dd	8ff#	8D	8dd	8ff#
=26	=26	=26	=26	=26	=26	=26
4G	4g	8.dd	8.bb	4G	8.dd	8.bb
.	.	16ee	16cc#	.	16ee	16cc#
8F#	8a	8ff#	8dd	8F#	8ff#	8dd
=27	=27	=27	=27	=27	=27	=27
8G	8b	8dd	8ee	8G	8dd	8ee
8A	8.a	8.dd	4ee	8A	8.dd	4ee
8AA	.	.	.	8AA	.	.
.	16a	16cc#	.	.	16cc#	.
=28	=28	=28	=28	=28	=28	=28
4.D	4.f#	4.dd	4.dd	4.D	4.dd	4.dd
=29	=29	=29	=29	=29	=29	=29
4d	4a	8.ff#	8.aa	4d	8.ff#	8.aa
.	.	16ee	16gg	.	16ee	16gg
8D	8a	8dd	8ff#	8D	8dd	8ff#
=30	=30	=30	=30	=30	=30	=30
4A	4a	4cc#	4ee	4A	4cc#	4ee
8r	8r	8r	8r	8r	8r	8r
=31	=31	=31	=31	=31	=31	=31
4B	4f#	8.dd	8.ff#	4B	8.dd	8.ff#
.	.	16cc#	16ee	.	16cc#	16ee
8BB	8f#	8b	8dd	8BB	8b	8dd
=32	=32	=32	=32	=32	=32	=32
4F#	4f#	4a#	4cc#	4F#	4a#	4cc#
8r	8r	8r	8r	8r	8r	8r
=33	=33	=33	=33	=33	=33	=33
4B	4d	4dd	8.gg	4B	4dd	8.gg
.	.	.	16aa	.	.	16aa
8A#	8f#	8cc#	8ff#	8A#	8cc#	8ff#
=34	=34	=34	=34	=34	=34	=34
4B	4B	4dd	4gg	4B	4dd	4gg
[8A	[8f#	[8cc#	[8ff#	[8A	[8cc#	[8ff#
=35	=35	=35	=35	=35	=35	=35
8A]	8f#]	8cc#]	8ff#]	8A]	8cc#]	8ff#]
4G	4B	4b	4ee	4G	4b	4ee
=36	=36	=36	=36	=36	=36	=36
4F#	4c#	4a#	4ff#	4F#	4a#	4ff#
8r	8r	8r	8r	8A#	8cc#	8ff#
=37	=37	=37	=37	=37	=37	=37
4.r	4.r	4.r	4.r	4B	4dd	16gg
.	.	.	.	.	.	16ff#
.	.	.	.	.	.	16gg
.	.	.	.	.	.	16aa
.	.	.	.	8A	8cc#	16ff#
.	.	.	.	.	.	16gg
=38	=38	=38	=38	=38	=38	=38
4.r	4.r	4.r	4.r	4G	4b	16ee
.	.	.	.	.	.	16dd
.	.	.	.	.	.	16ee
.	.	.	.	.	.	16ff#
.	.	.	.	8F#	8a	16dd
.	.	.	.	.	.	16ee
=39	=39	=39	=39	=39	=39	=39
4.r	4.r	4.r	4.r	4E	4g	16cc
.	.	.	.	.	.	16b
.	.	.	.	.	.	16cc
.	.	.	.	.	.	16dd
.	.	.	.	8D	8f#	16b
.	.	.	.	.	.	16cc
=40	=40	=40	=40	=40	=40	=40
4.r	4.r	4.r	4.r	4C#	4e	8.a#
.	.	.	.	.	.	16aa#
.	.	.	.	8BB	8d	16bb
.	.	.	.	.	.	16ff#
=41	=41	=41	=41	=41	=41	=41
4.r	4.r	4.r	4.r	8E	8b	16ee
.	.	.	.	.	.	16dd
.	.	.	.	8F#	8.b	4cc#
.	.	.	.	8FF#	.	.
.	.	.	.	.	16a#	.
=42	=42	=42	=42	=42	=42	=42
8BB	8r	4.r	16b	8BB	4b	16b
.	.	.	16f#	.	.	16f#
8B	8f#	.	16b	8B	.	16b
.	.	.	16cc#	.	.	16cc#
8A	8f#	.	16dd#	8A	8r	16dd#
.	.	.	16b	.	.	16b
=43	=43	=43	=43	=43	=43	=43
8G#	4e	16ee	8ee	8G#	16ee	8ee
.	.	16b	.	.	16b	.
8E	.	16ee	8e	8E	16ee	8e
.	.	16ff#	.	.	16ff#	.
8G#	8r	16dd	8r	8G#	16dd	8r
.	.	16ee	.	.	16ee	.
=44	=44	=44	=44	=44	=44	=44
8AA	8r	8cc#	16a	8AA	8cc#	16a
.	.	.	16e	.	.	16e
8A	8e	8A	16a	8A	8A	16a
.	.	.	16b	.	.	16b
8G	8e	8r	16cc#	8G	8r	16cc#
.	.	.	16a	.	.	16a
=45	=45	=45	=45	=45	=45	=45
8F#	4d	16aa	8dd	8F#	16aa	8dd
.	.	16gg	.	.	16gg	.
8F#	.	16aa	8d	8F#	16aa	8d
.	.	16bb	.	.	16bb	.
8E	8r	16gg	8r	8E	16gg	8r
.	.	16aa	.	.	16aa	.
=46	=46	=46	=46	=46	=46	=46
8D	8r	16ff#	16aa	8D	16ff#	16aa
.	.	16ee	16gg	.	16ee	16gg
8d	8dd	16ff#	16aa	8d	16ff#	16aa
.	.	16gg	16bb	.	16gg	16bb
8c#	8a	16ee	16aa	8c#	16ee	16aa
.	.	16ff#	16bb	.	16ff#	16bb
=47	=47	=47	=47	=47	=47	=47
8B	8r	16dd	16gg	8B	16dd	16gg
.	.	16cc#	16ff#	.	16cc#	16ff#
8B	8b	16dd	16gg	8B	16dd	16gg
.	.	16ee	16aa	.	16ee	16aa
8A	8f#	16cc#	16ff#	8A	16cc#	16ff#
.	.	16dd	16gg	.	16dd	16gg
=48	=48	=48	=48	=48	=48	=48
8G	8r	4b	4ee	8G	4b	4ee
8G	8g	.	.	8G	.	.
8F#	8d	8a	8dd	8F#	8a	8dd
=49	=49	=49	=49	=49	=49	=49
4E	8r	16b	16gg	4E	16b	16gg
.	.	16a	16ff#	.	16a	16ff#
.	8g	16b	16gg	.	16b	16gg
.	.	16cc#	16aa	.	16cc#	16aa
8D	8a	16dd	16ff#	8D	16dd	16ff#
.	.	16ee	16gg	.	16ee	16gg
=50	=50	=50	=50	=50	=50	=50
4.A	4.a	4.cc#	4.ee	4.A	4.cc#	4.ee
=51	=51	=51	=51	=51	=51	=51
4.r	4.r	4.r	4.r	8d	16ff#	16aa
.	.	.	.	.	16dd	16ff#
.	.	.	.	8D	16ff#	16dd
.	.	.	.	.	16aa	16ff#
.	.	.	.	8r	16dd	16a
.	.	.	.	.	16ff#	16dd
=52	=52	=52	=52	=52	=52	=52
4.r	4.r	4.r	4.r	8G	16gg	16b
.	.	.	.	.	16b	16g
.	.	.	.	8GG	16g	16b
.	.	.	.	.	16b	16dd
.	.	.	.	8r	16ee	16gg
.	.	.	.	.	16dd	16ff#
=53	=53	=53	=53	=53	=53	=53
4.r	4.r	4.r	4.r	8A	16cc#	16ee
.	.	.	.	.	16ee	16a
.	.	.	.	8AA	16a	16cc#
.	.	.	.	.	16cc#	16ee
.	.	.	.	8r	16ee	16aa
.	.	.	.	.	16cc#	16gg
=54	=54	=54	=54	=54	=54	=54
4.r	4.r	4.r	4.r	8D	16dd	16ff#
.	.	.	.	.	16ff#	16dd
.	.	.	.	8DD	16aa	16ff#
.	.	.	.	.	16ff#	16aa
.	.	.	.	8r	16dd	16ddd
.	.	.	.	.	16ff#	16ccc#
=55	=55	=55	=55	=55	=55	=55
4.r	4.r	4.r	4.r	8G	16gg	16bb
.	.	.	.	.	16b	16dd
.	.	.	.	8GG	16bb	16gg
.	.	.	.	.	16aa	16ff#
.	.	.	.	8r	16gg	16ee
.	.	.	.	.	16ff#	16dd
=56	=56	=56	=56	=56	=56	=56
4.r	4.r	4.r	4.r	8.A	8.ee	8.cc#
.	.	.	.	16F#	16a	16aa
.	.	.	.	8G	8dd	16bb
.	.	.	.	.	.	16cc#
=57	=57	=57	=57	=57	=57	=57
4.r	4.r	4.r	4.r	16F#	8.dd	16dd
.	.	.	.	16G	.	16ee
.	.	.	.	8A	.	4ee
.	.	.	.	.	16dd	.
.	.	.	.	8AA	8cc#	.
=58	=58	=58	=58	=58	=58	=58
4r	4r	4r	4r	4D	4dd	4dd
8D	8d	8f#	8b	8D	8f#	8b
=59	=59	=59	=59	=59	=59	=59
4C#	4e	8.e	8b	4C#	8.e	8b
.	.	.	8a	.	.	8a
.	.	16f#	.	.	16f#	.
8F#	8c#	8e	8a	8F#	8e	8a
=60	=60	=60	=60	=60	=60	=60
4BB	4d	8.d	8a	4BB	8.d	8a
.	.	.	8g	.	.	8g
.	.	16e	.	.	16e	.
8E	8g	8d	8g	8E	8d	8g
=61	=61	=61	=61	=61	=61	=61
4AA	4e	4c#	4g	4AA	4c#	4g
8D	8f#	[8d	[8f#	8D	[8d	[8f#
=62	=62	=62	=62	=62	=62	=62
8GG	8b	8d]	8f#]	8GG	8d]	8f#]
4AA	8.a	8.d	8.e	4AA	8.d	8.e
.	16a	16c#	16a	.	16c#	16a
=63	=63	=63	=63	=63	=63	=63
4D	4a	4d	4f#	4D	4d	4f#
8D	8d	8f#	8b	8D	8f#	8b
=64	=64	=64	=64	=64	=64	=64
4C#	4e	8.e	8b	4C#	8.e	8b
.	.	.	8a	.	.	8a
.	.	16f#	.	.	16f#	.
8F#	8c#	8e	8a	8F#	8e	8a
=65	=65	=65	=65	=65	=65	=65
4BB	4d	8.d	8a	4BB	8.d	8a
.	.	.	8g	.	.	8g
.	.	16e	.	.	16e	.
8E	8g	8d	8g	8E	8d	8g
=66	=66	=66	=66	=66	=66	=66
4AA	4e	4c#	4g	4AA	4c#	4g
8D	8f#	[8d	[8f#	8D	[8d	[8f#
=67	=67	=67	=67	=67	=67	=67
8GG	8b	8d]	8f#]	8GG	8d]	8f#]
4AA	8.a	8.d	8.e	4AA	8.d	8.e
.	16A	16c#	16a	.	16c#	16a
=68	=68	=68	=68	=68	=68	=68
4.DD	4.A	4.d	4.f#	4.DD	4.d	4.f#
==	==	==	==	==	==	==
*-	*-	*-	*-	*-	*-	*-
!!!RWG: This file only contains pitch and duration data.
!!!RWG: Transposing instruments are not transposed.
!!!RWG: Durations of rests and tied notes may be interpreted.
!!!RWG: Key is interpreted using the Humdrum key tool.
!!!SCA: 
!!!YOR: Chrysander Edition
!!!AGN: concerto grosso
!!!AFT: stage1
!!!ENC: F. Bennion
!!!END: 1997/04/15
!!!AST: baroque
!!!YEC: Copyright 1994, Center for Computer Assisted Research in the Humanities
!!!YEM: Rights to all derivative electronic formats reserved.
!!!YEM: Refer to licensing agreement for further details.
!!!YEN: United States of America
!!!EED: W.B. Hewlett
!!!KEY: 2090007402
!!!EMD: Converted from MuseData to Humdrum Aug 9, 1999, by Bret Aarden using muse2kern.
!!!VTS: 1450027518
